X: 107
T: s'Lerchal
M: 23/44
L: 1/8
K: F
[A2F2] \
| "F"[AF][cA] [cA][AF] | [AF][cA] [cA][AF] \
| "F"[AF][cA] [cA][cA] [dB][cA] | "C7"[B4G4] [G2E2] \
| "C7"[GE][BG] [BG][GE] | [GE][BG] [BG][GE] \
| "C7"[GE][BG] [BG][BG] [cA][BG] | "F"[A2F2] z [cA][=B^G][cA] |
| "Bb"[d2B2] [c2A2] | "(Gm)"[B4G4] \
| "F"[c2A2] [B2G2] | "(Dm)"[A4F4] \
| "C7"[G3E3] [AF][B2G2] | "F"[AF][BG] [cA][dB] [c2A2] \
"I"\
| "Bb"[d2B2] [c2A2] | "(Gm)"[B4G4] \
| "F"[c2A2] [B2G2] | "(Dm)"[A4F4] \
| "C7"[GE][AF] [BG][cA] [dB][ec] | "F"[f2A2] z2 :|
%%sep 2 1 500
